X: 1335
T: Charlie Kyle's No 15 Polka
B: australian traditional tunes wiki
M:2/4
L:1/16
R: Polka
Q: 1/4=100
K:G
V:1 
D2|:"G"G2G2 dddd|"C"e2e2 "G"d4|"C"e2d2 "Em"BAGA|B2A2"D"A4|
"G"GABc d2d2|"C"e2e2 "Bm"d4|"G"g2B2 "D"A3B|"G"B2G2G4|
"G"gggg g2d2|"Em"gggg g2d2|"Am"e2a2 e2f2|"Em"e2d2"D"d4|
"G"gggg g2d2|"Am"e2a2 e2f2|"G"g4g4|g4z4:|
% abcbook-tune_id 6342d53aca71ff0ff65cfbe2


% abcbook-boost 0
% abcbook-tablature 
% abcbook-transpose 
% abcbook-lastupdated 1665324359895
% abcbook-soundfonts 
% abcbook-repeats 1
% NFF Book 2007

